lib/assets/images/internet_fail.svg

<svg width="149" height="99" viewBox="0 0 149 99" fill="none" xmlns="http://www.w3.org/2000/svg">
<path d="M115.035 98.527H24.3907L58.2861 20.5326H87.8485L115.035 98.527Z" fill="#E5D065"/>
<path d="M119.927 46.3911L35.6426 32.2039C41.0938 10.8184 62.1299 -3.15913 84.2842 0.614787C106.439 4.38871 121.744 24.3765 119.927 46.3911Z" fill="#B3C4DF"/>
<path d="M33.0568 37.5154L116.642 55.3367C113.288 62.2555 94.0685 64.1425 72.0539 59.46C50.0394 54.7776 33.2664 45.1331 33.0568 37.5154Z" fill="#7F95B9"/>
<path d="M149 61.6265L0 36.5369C6.08021 19.9736 40.4648 12.0064 79.6717 18.5758C118.879 25.1452 148.72 44.0148 149 61.6265Z" fill="#26518D"/>
<path d="M80.3705 41.2194C84.2303 41.2194 87.3593 38.0905 87.3593 34.2307C87.3593 30.3709 84.2303 27.2419 80.3705 27.2419C76.5108 27.2419 73.3818 30.3709 73.3818 34.2307C73.3818 38.0905 76.5108 41.2194 80.3705 41.2194Z" fill="white"/>
<path d="M107.976 46.8104C110.871 46.8104 113.218 44.4637 113.218 41.5688C113.218 38.674 110.871 36.3273 107.976 36.3273C105.081 36.3273 102.735 38.674 102.735 41.5688C102.735 44.4637 105.081 46.8104 107.976 46.8104Z" fill="white"/>
<path d="M51.3673 36.3272C54.2621 36.3272 56.6088 33.9805 56.6088 31.0857C56.6088 28.1908 54.2621 25.8441 51.3673 25.8441C48.4724 25.8441 46.1257 28.1908 46.1257 31.0857C46.1257 33.9805 48.4724 36.3272 51.3673 36.3272Z" fill="white"/>
<path d="M24.4606 34.9295C26.7765 34.9295 28.6538 33.0521 28.6538 30.7362C28.6538 28.4203 26.7765 26.543 24.4606 26.543C22.1447 26.543 20.2674 28.4203 20.2674 30.7362C20.2674 33.0521 22.1447 34.9295 24.4606 34.9295Z" fill="white"/>
<path d="M131.388 53.7991C133.704 53.7991 135.582 51.9217 135.582 49.6058C135.582 47.29 133.704 45.4126 131.388 45.4126C129.073 45.4126 127.195 47.29 127.195 49.6058C127.195 51.9217 129.073 53.7991 131.388 53.7991Z" fill="white"/>
<g clip-path="url(#clip0_2322_1423)">
<path d="M54.4104 75.6937L57.2312 78.5145C64.2409 71.5048 75.6088 71.5048 82.6185 78.5145L85.4393 75.6937C76.8782 67.1325 62.9857 67.1325 54.4104 75.6937ZM65.6936 86.9769L69.9249 91.2082L74.1561 86.9769C71.8289 84.6357 68.0349 84.6357 65.6936 86.9769ZM60.052 81.3353L62.8728 84.1561C66.7656 80.2634 73.0842 80.2634 76.9769 84.1561L79.7977 81.3353C74.3535 75.8912 65.5103 75.8912 60.052 81.3353Z" fill="white"/>
</g>
<defs>
<clipPath id="clip0_2322_1423">
<rect width="33.8497" height="33.8497" fill="white" transform="translate(53 63)"/>
</clipPath>
</defs>
</svg>

<svg xmlns="http://www.w3.org/2000/svg" fill="none" viewBox="0 0 149 99"><path fill="#E5D065" d="M115.035 98.527H24.391l33.895-77.994H87.85l27.186 77.994Z"/><path fill="#B3C4DF" d="M119.927 46.391 35.643 32.204C41.093 10.818 62.13-3.16 84.284.614c22.155 3.775 37.46 23.762 35.643 45.777Z"/><path fill="#7F95B9" d="m33.057 37.515 83.585 17.822c-3.354 6.918-22.573 8.805-44.588 4.123-22.015-4.682-38.788-14.327-38.997-21.945Z"/><path fill="#26518D" d="M149 61.627 0 36.537c6.08-16.563 40.465-24.53 79.672-17.961 39.207 6.57 69.048 25.439 69.328 43.05Z"/><path fill="#fff" d="M80.37 41.22a6.989 6.989 0 1 0 0-13.978 6.989 6.989 0 0 0 0 13.977ZM107.976 46.81a5.242 5.242 0 1 0 0-10.483 5.242 5.242 0 0 0 0 10.483ZM51.367 36.327a5.242 5.242 0 1 0 0-10.483 5.242 5.242 0 0 0 0 10.483ZM24.46 34.93a4.193 4.193 0 1 0 0-8.387 4.193 4.193 0 0 0 0 8.386ZM131.388 53.8a4.194 4.194 0 1 0 0-8.389 4.194 4.194 0 0 0 0 8.388Z"/><g clip-path="url(#a)"><path fill="#fff" d="m54.41 75.694 2.821 2.82c7.01-7.01 18.378-7.01 25.387 0l2.821-2.82c-8.56-8.562-22.453-8.562-31.029 0Zm11.284 11.283 4.23 4.231 4.232-4.231c-2.327-2.341-6.121-2.341-8.462 0Zm-5.642-5.642 2.82 2.821c3.894-3.893 10.212-3.893 14.105 0l2.82-2.82c-5.444-5.445-14.287-5.445-19.745 0Z"/></g><defs><clipPath id="a"><path fill="#fff" d="M53 63h33.85v33.85H53z"/></clipPath></defs></svg>
